X: 37
T: No_134_Dream_Song.krn
%%abc-version 2.0
%%abcx-abcm2ps-target-version 5.9.1 (29 Sep 2008)
%%abc-creator hum2abc beta
%%abcx-conversion-date 2020/08/10 18:54:57
%%gracespace 0 6 6
%%humdrum-veritas 2656337117
%%humdrum-veritas-data 2548642574
%%linebreak <none>
%%barnumbers 0
L: 1/8
M: 2/4
%%staves {1 2}
V: 1 clef=treble
V: 2 clef=bass
K: Gb
[V:1] B3/A/ [I:setbarnb 1]| 
[V:2] z2 | 
[V:1] GGG2 | 
[V:2] (3!accent!G,, z G,, (3!accent!G,, z G,, | 
[V:1] EGG2 ||  
[V:2] z4 ||  
[V:1] [M:3/4]DDD4 ]|:  
[V:2] [M:3/4]z6 ]|:  
[V:1] [M:2/4]GGG2 | 
[V:2] [M:2/4]z4 | 
[V:1] DDD2[K:clef=bass] | 
[V:2] z4 | 
[V:1] B,D GB, | 
[V:2] z4 | 
[V:1] G,G, G,G, ||  
[V:2] z4 ||  
[V:1] [M:3/4]G,6 ||  
[V:2] [M:3/4]z6 ||  
[V:1] [M:2/4]DD (3DGB, | 
[V:2] [M:2/4]z4 | 
[V:1] A,2B,A, | 
[V:2] z4 | 
[V:1] G,G,G,2 | 
[V:2] z4 | 
[V:1] E,G, G,E, ||  
[V:2] z4 ||  
[V:1] [M:3/4]D,>D,D,3D, | 
[V:2] [M:3/4]z6 | 
[V:1] D,6 :|]  
[V:2] z6 :|]  


